src/images/icons/contact.svg

<svg xmlns="http://www.w3.org/2000/svg" width="24" height="24" viewBox="0 0 24 24"><path id="outline" d="M12,2 L14.857,4 L20.001752,4 L20.001,7.6 L21.5710451,8.69973159 C21.8078654,8.86550576 21.9586688,9.10925837 21.9926693,9.37433779 L22,9.48908381 L22,21 C22,21.5154658 21.5666559,21.9398399 21.0099567,21.9941321 L20.8888889,22 L3.11111111,22 C2.53837137,22 2.06684458,21.6099903 2.00651985,21.108961 L2,21 L2,9.48908381 C2,9.21906718 2.12120086,8.96228426 2.33281657,8.77538669 L2.42895487,8.69973159 L4,7.599 L4,4 L9.142,4 L12,2 Z M20.0017515,11 L12.5999816,16.5501123 C12.2799844,16.7900577 11.852025,16.8140314 11.5104558,16.6220437 L11.4000657,16.5500493 L4,11 L4,20 L20.0017515,20 L20.0017515,11 Z M18,6 L6,6 L6,9.90804598 L12,14.5 L18,9.90804598 L18,6 Z"/><path id="fill" d="M20.0017515,11 L12.5999816,16.5501123 C12.2799844,16.7900577 11.852025,16.8140314 11.5104558,16.6220437 L11.4000657,16.5500493 L4,11 L4,20 L20.0017515,20 L20.0017515,11 Z"/><polygon id="fill" points="18 6 6 6 6 9.908 12 14.5 18 9.908"/></svg>

<svg xmlns="http://www.w3.org/2000/svg" width="24" height="24"><path id="outline" d="M12 2l2.857 2h5.145L20 7.6l1.57 1.1a.98.98 0 01.422.674L22 9.49V21c0 .515-.433.94-.99.994l-.121.006H3.11c-.573 0-1.044-.39-1.104-.891L2 21V9.49c0-.27.121-.528.333-.715l.096-.075L4 7.599V4h5.142L12 2z"/><path id="fill" d="M20.002 11L12.6 16.55a1 1 0 01-1.09.072l-.11-.072L4 11v9h16.002v-9z"/><path id="fill" d="M18 6H6v3.908l6 4.592 6-4.592z"/></svg>
